X:535
T:The Saline Reel
M:4/4
L:1/8
K:G
dBcd B2 Ac|B2 GBBA GB|AAFA DFAc|1 B2 GBBA G2 :|2BcAF G2 Bc||
[gB] bg gfeg|f2 fa fedf|eA (3AAA AFAc|1 B2 GBBA G2:|2 BcAF G2 Bc |>|
